X:84
T:Last House in Connacht, The
T:Dinny O'Brien's
R:reel
C:Paddy O'Brien (Nenagh) (1922-1991)
H:See also #881
D:Paddy Glackin: In Full Spate.
Z:id:hn-reel-84
M:C|
K:Dmix
fddc dcAB|c2dB cAGE|D2 (3FED ADFD|(3EFG AB cdeg|
fddc dcAB|c2dB cAGE|D2 (3FED FGAB|cAGE EDD2:|
|:fdd^c defg|ad~d2 adfd|eccB cdef|gc~c2 g2eg|
fddc dcAB|c2dB cAGE|D2 (3FED FGAB|cAGE EDD2:|
P:Variations:
|:fd~d2 dcAB|c2Bd cAGE|D2 (3FED ADFD|(3EFG AB cdeg|
fd~d2 dcAB|c2Bd cAGE|D2 (3FED EFGB|cAGE EDD2:|
|:fdd^c defg|ad~d2 Adfd|eccB cdef|g2af gedg|
fd~d2 dcAB|c2Bd cAGE|D2 (3FED EFGB|cAGE EDD2:|
P:Version 2
|:fd~d2 ABcA|dcAd cAGE|D2 (3FED ADFD|(3EFG AB cdeg|
fd~d2 ABcA|dcAd cAGE|D2 (3FED FGAB|cAGE EDD2:|
|:fdd^c defg|ad~d2 adfd|eccB cdef|gc~c2 gceg|
fd~d2 ABcA|dcAd cAGE|D2 (3FED FGAB|cAGE EDD2:|

